flaticon/gastronomy/blueberries.svg

<svg xmlns="http://www.w3.org/2000/svg" width="32" height="32" viewBox="0 0 24 24">
    <path d="M 24 7.886719 C 24 4.390625 21.152344 1.542969 17.65625 1.542969 C 14.261719 1.542969 11.488281 4.222656 11.324219 7.574219 C 10.152344 6.085938 8.339844 5.140625 6.347656 5.140625 C 2.847656 5.140625 0 7.988281 0 11.484375 C 0 14.984375 2.847656 17.832031 6.34375 17.832031 C 7.042969 17.832031 7.726562 17.710938 8.378906 17.492188 C 9.011719 20.328125 11.542969 22.457031 14.570312 22.457031 C 18.070312 22.457031 20.914062 19.609375 20.914062 16.113281 C 20.914062 15.21875 20.730469 14.371094 20.394531 13.601562 C 22.570312 12.554688 24 10.324219 24 7.886719 Z M 6.34375 16.964844 C 3.324219 16.964844 0.867188 14.507812 0.867188 11.484375 C 0.867188 8.464844 3.324219 6.007812 6.34375 6.007812 C 8.949219 6.007812 11.199219 7.875 11.710938 10.402344 C 9.527344 11.464844 8.136719 13.667969 8.136719 16.113281 C 8.136719 16.285156 8.148438 16.460938 8.164062 16.652344 C 7.582031 16.859375 6.972656 16.964844 6.34375 16.964844 Z M 14.570312 21.589844 C 11.550781 21.589844 9.09375 19.132812 9.09375 16.113281 C 9.09375 13.105469 11.53125 10.65625 14.535156 10.636719 C 14.609375 10.636719 14.683594 10.640625 14.757812 10.644531 C 14.804688 10.644531 14.851562 10.648438 14.902344 10.652344 C 16.792969 10.792969 18.472656 11.902344 19.351562 13.613281 L 19.53125 13.957031 C 19.53125 13.957031 20.046875 15.335938 20.046875 16.113281 C 20.046875 19.132812 17.589844 21.589844 14.570312 21.589844 Z M 19.992188 12.832031 C 18.945312 11.105469 17.097656 9.921875 14.96875 9.785156 C 14.890625 9.78125 14.808594 9.777344 14.726562 9.773438 C 14.675781 9.773438 14.625 9.765625 14.570312 9.765625 C 14.558594 9.765625 14.546875 9.769531 14.535156 9.769531 C 14.519531 9.769531 14.5 9.765625 14.484375 9.765625 C 13.855469 9.765625 13.234375 9.863281 12.625 10.050781 C 12.328125 9.363281 12.175781 8.636719 12.175781 7.886719 C 12.175781 4.867188 14.632812 2.410156 17.65625 2.410156 C 20.675781 2.410156 23.132812 4.867188 23.132812 7.886719 C 23.132812 10 21.886719 11.933594 19.992188 12.832031 Z M 19.992188 12.832031"/>
    <path d="M15.222656 13.085938C14.765625 12.699219 14.105469 12.664062 13.613281 13.003906L12.382812 13.855469C12.183594 13.992188 12.136719 14.261719 12.273438 14.460938 12.355469 14.582031 12.492188 14.648438 12.628906 14.648438 12.714844 14.648438 12.800781 14.621094 12.875 14.570312L14.109375 13.71875C14.273438 13.601562 14.507812 13.613281 14.660156 13.746094L15.597656 14.542969C15.78125 14.699219 16.054688 14.675781 16.210938 14.492188 16.367188 14.3125 16.34375 14.039062 16.160156 13.882812zM14.050781 12.273438L14.246094 11.5C14.304688 11.265625 14.164062 11.03125 13.933594 10.972656 13.699219 10.914062 13.464844 11.054688 13.40625 11.289062L13.210938 12.0625C13.199219 12.113281 13.054688 12.234375 12.847656 12.234375L11.824219 12.234375C11.585938 12.234375 11.390625 12.429688 11.390625 12.671875 11.390625 12.910156 11.585938 13.105469 11.824219 13.105469L12.847656 13.105469C13.414062 13.105469 13.933594 12.746094 14.050781 12.273438zM16.894531 12.238281L15.636719 12.125C15.457031 12.109375 15.347656 12.011719 15.339844 11.984375L15.285156 11.355469C15.261719 11.117188 15.058594 10.941406 14.8125 10.960938 14.574219 10.984375 14.398438 11.191406 14.417969 11.429688L14.472656 12.058594C14.515625 12.539062 14.984375 12.941406 15.558594 12.992188L16.816406 13.101562C16.828125 13.101562 16.84375 13.105469 16.855469 13.105469 17.078125 13.105469 17.265625 12.933594 17.285156 12.707031 17.308594 12.46875 17.132812 12.257812 16.894531 12.238281zM7.046875 8.527344C6.589844 8.140625 5.929688 8.109375 5.4375 8.445312L4.207031 9.296875C4.007812 9.433594 3.960938 9.707031 4.097656 9.902344 4.179688 10.023438 4.316406 10.089844 4.453125 10.089844 4.539062 10.089844 4.625 10.066406 4.699219 10.011719L5.933594 9.160156C6.097656 9.046875 6.332031 9.058594 6.484375 9.1875L7.421875 9.988281C7.605469 10.140625 7.878906 10.121094 8.035156 9.9375 8.191406 9.753906 8.167969 9.480469 7.984375 9.324219zM5.875 7.71875L6.070312 6.941406C6.128906 6.710938 5.988281 6.472656 5.757812 6.414062 5.523438 6.355469 5.289062 6.496094 5.230469 6.730469L5.035156 7.507812C5.023438 7.554688 4.878906 7.679688 4.671875 7.679688L3.648438 7.679688C3.410156 7.679688 3.214844 7.875 3.214844 8.113281 3.214844 8.351562 3.410156 8.546875 3.648438 8.546875L4.671875 8.546875C5.238281 8.546875 5.757812 8.191406 5.875 7.71875zM7.382812 8.433594L8.640625 8.546875C8.652344 8.546875 8.667969 8.546875 8.679688 8.546875 8.902344 8.546875 9.089844 8.375 9.109375 8.152344 9.132812 7.914062 8.957031 7.703125 8.71875 7.679688L7.460938 7.570312C7.28125 7.554688 7.171875 7.457031 7.164062 7.425781L7.109375 6.796875C7.085938 6.558594 6.882812 6.378906 6.636719 6.402344 6.398438 6.425781 6.222656 6.636719 6.242188 6.875L6.296875 7.5C6.339844 7.980469 6.808594 8.382812 7.382812 8.433594zM18.328125 4.839844C17.875 4.453125 17.210938 4.421875 16.722656 4.757812L15.488281 5.609375C15.289062 5.746094 15.242188 6.019531 15.378906 6.214844 15.460938 6.335938 15.597656 6.402344 15.734375 6.402344 15.820312 6.402344 15.90625 6.378906 15.980469 6.324219L17.214844 5.472656C17.378906 5.359375 17.613281 5.371094 17.765625 5.5L18.707031 6.300781C18.890625 6.453125 19.164062 6.433594 19.316406 6.25 19.472656 6.066406 19.449219 5.792969 19.269531 5.636719zM17.160156 4.03125L17.355469 3.253906C17.414062 3.023438 17.273438 2.785156 17.039062 2.726562 16.804688 2.667969 16.570312 2.808594 16.511719 3.042969L16.316406 3.820312C16.304688 3.867188 16.160156 3.992188 15.953125 3.992188L14.933594 3.992188C14.691406 3.992188 14.496094 4.1875 14.496094 4.425781 14.496094 4.664062 14.691406 4.859375 14.933594 4.859375L15.953125 4.859375C16.523438 4.859375 17.039062 4.503906 17.160156 4.03125zM20 3.992188L18.742188 3.882812C18.5625 3.867188 18.457031 3.769531 18.445312 3.738281L18.390625 3.109375C18.371094 2.871094 18.164062 2.691406 17.921875 2.714844 17.683594 2.738281 17.503906 2.949219 17.527344 3.1875L17.582031 3.8125C17.621094 4.292969 18.089844 4.695312 18.667969 4.746094L19.921875 4.855469C19.933594 4.859375 19.949219 4.859375 19.960938 4.859375 20.183594 4.859375 20.371094 4.6875 20.394531 4.464844 20.414062 4.226562 20.238281 4.015625 20 3.992188zM20 3.992188"/>
</svg>

<svg xmlns="http://www.w3.org/2000/svg" width="32" height="32" viewBox="0 0 24 24">
    <path d="M24 7.887a6.353 6.353 0 0 0-6.344-6.344c-3.394 0-6.168 2.68-6.332 6.031a6.344 6.344 0 0 0-4.976-2.433C2.848 5.14 0 7.988 0 11.484c0 3.5 2.848 6.348 6.344 6.348.699 0 1.383-.121 2.035-.34.633 2.836 3.164 4.965 6.191 4.965a6.35 6.35 0 0 0 6.344-6.344c0-.894-.184-1.742-.52-2.511C22.57 12.555 24 10.324 24 7.887zM6.344 16.965a5.484 5.484 0 0 1-5.477-5.48 5.483 5.483 0 0 1 5.477-5.477c2.605 0 4.855 1.867 5.367 4.394a6.339 6.339 0 0 0-3.574 5.711c0 .172.011.348.027.54a5.404 5.404 0 0 1-1.82.312zm8.226 4.625a5.483 5.483 0 0 1-5.476-5.477 5.483 5.483 0 0 1 5.441-5.476c.074 0 .149.004.223.008a5.448 5.448 0 0 1 4.594 2.969l.18.343s.515 1.379.515 2.156a5.483 5.483 0 0 1-5.477 5.477zm5.422-8.758a6.35 6.35 0 0 0-5.265-3.059c-.051 0-.102-.007-.157-.007-.011 0-.023.004-.035.004-.015 0-.035-.004-.05-.004a6.3 6.3 0 0 0-1.86.285 5.424 5.424 0 0 1-.45-2.164 5.484 5.484 0 0 1 5.481-5.477 5.483 5.483 0 0 1 5.477 5.477 5.505 5.505 0 0 1-3.14 4.945zm0 0"/>
    <path d="M15.223 13.086a1.326 1.326 0 0 0-1.61-.082l-1.23.851a.433.433 0 0 0-.11.606.43.43 0 0 0 .602.11l1.234-.852a.452.452 0 0 1 .551.027l.938.797a.434.434 0 0 0 .562-.66zm0 0M14.05 12.273l.196-.773a.434.434 0 1 0-.84-.21l-.195.773c-.012.05-.156.171-.363.171h-1.024a.436.436 0 0 0 0 .871h1.024c.566 0 1.086-.359 1.203-.832zm0 0M16.895 12.238l-1.258-.113c-.18-.016-.29-.113-.297-.14l-.055-.63a.435.435 0 0 0-.867.075l.055.629c.043.48.511.882 1.086.933l1.257.11.04.003c.222 0 .41-.171.43-.398a.428.428 0 0 0-.391-.469zm0 0M7.047 8.527a1.332 1.332 0 0 0-1.61-.082l-1.23.852a.434.434 0 0 0 .246.793.41.41 0 0 0 .246-.078l1.235-.852a.464.464 0 0 1 .55.027l.938.801a.434.434 0 1 0 .563-.664zm0 0M5.875 7.719l.195-.778a.433.433 0 0 0-.84-.21l-.195.777c-.012.047-.156.172-.363.172H3.648a.435.435 0 0 0-.433.433c0 .239.195.434.433.434h1.024c.566 0 1.086-.356 1.203-.828zm0 0M7.383 8.434l1.258.113h.039c.222 0 .41-.172.43-.395a.434.434 0 0 0-.391-.472L7.46 7.57c-.18-.015-.29-.113-.297-.144l-.055-.63a.432.432 0 0 0-.472-.394.44.44 0 0 0-.395.473l.055.625c.043.48.512.883 1.086.934zm0 0M18.328 4.84a1.326 1.326 0 0 0-1.605-.082l-1.235.851a.434.434 0 0 0 .246.793.41.41 0 0 0 .246-.078l1.235-.851a.464.464 0 0 1 .55.027l.942.8a.433.433 0 0 0 .61-.05.437.437 0 0 0-.047-.613zm0 0M17.16 4.031l.195-.777a.435.435 0 1 0-.843-.211l-.196.777c-.011.047-.156.172-.363.172h-1.02a.436.436 0 0 0-.437.434c0 .238.195.433.438.433h1.02c.57 0 1.085-.355 1.206-.828zm0 0M20 3.992l-1.258-.11c-.18-.015-.285-.112-.297-.144l-.054-.629a.429.429 0 0 0-.47-.394.437.437 0 0 0-.394.473l.055.624c.04.481.508.883 1.086.934l1.254.11a.133.133 0 0 0 .039.003.44.44 0 0 0 .434-.394.44.44 0 0 0-.395-.473zm0 0"/>
</svg>
